packages/foundations/assets/icons/functional/images/arrows/arrow_right_24.svg

<svg width="24" height="24" viewBox="0 0 24 24" fill="none" xmlns="http://www.w3.org/2000/svg">
<g clip-path="url(#clip0_77_480)">
<path fill-rule="evenodd" clip-rule="evenodd" d="M3.99741 12C3.99741 12.563 4.43541 13 4.99741 13H16.5914L12.3094 17.281C12.2116 17.3736 12.1335 17.485 12.0799 17.6086C12.0262 17.7322 11.9982 17.8653 11.9974 18C11.9974 18.438 12.3724 19 13.0284 19C13.2784 19 13.5284 18.906 13.7164 18.719L19.7164 12.719C19.8085 12.6238 19.8808 12.5111 19.9291 12.3877C19.9773 12.2643 20.0005 12.1325 19.9974 12C20.0284 11.75 19.9194 11.485 19.7164 11.281L13.7164 5.281C13.53 5.10442 13.2841 5.00415 13.0274 5C12.4674 5 11.9974 5.469 11.9974 6C11.9974 6.281 12.1064 6.515 12.3104 6.719L16.5904 11H4.99741C4.43441 11 3.99741 11.438 3.99741 12Z" fill="#1A1C1F"/>
</g>
<defs>
<clipPath id="clip0_77_480">
<rect width="24" height="24" fill="white"/>
</clipPath>
</defs>
</svg>

<svg xmlns="http://www.w3.org/2000/svg" width="24" height="24" fill="none"><g clip-path="url(#a)"><path fill="#1A1C1F" fill-rule="evenodd" d="M3.997 12c0 .563.438 1 1 1h11.594l-4.282 4.281a1 1 0 0 0-.312.719c0 .438.375 1 1.031 1 .25 0 .5-.094.688-.281l6-6a1 1 0 0 0 .281-.719c.031-.25-.078-.515-.28-.719l-6-6a1.03 1.03 0 0 0-.69-.281c-.56 0-1.03.469-1.03 1 0 .281.11.515.313.719L16.59 11H4.997c-.563 0-1 .438-1 1" clip-rule="evenodd"/></g><defs><clipPath id="a"><path fill="#fff" d="M0 0h24v24H0z"/></clipPath></defs></svg>
